packages/symbols/svgs/solid/glasses-solid.svg

<svg width="16" height="16" viewBox="0 0 16 16" xmlns="http://www.w3.org/2000/svg"><g clip-path="url(#a)"><path d="M14 1h-3v2h3v5H2V3h3V1H2C.9 1 0 1.9 0 3v10c0 1.1.9 2 2 2h4c1.1 0 2-.9 2-2 0 1.1.9 2 2 2h4c1.1 0 2-.9 2-2V3c0-1.1-.9-2-2-2ZM6 13H2v-3h4v3Zm8 0h-4v-3h4v3Z"/></g><defs><clipPath id="a"><path fill="#fff" d="M0 0h16v16H0z"/></clipPath></defs></svg>

<svg width="16" height="16" viewBox="0 0 16 16" fill="none" xmlns="http://www.w3.org/2000/svg">
<g clip-path="url(#clip0_1279_4010)">
<path d="M14 1H11V3H14V8H2V3H5V1H2C0.9 1 0 1.9 0 3V13C0 14.1 0.9 15 2 15H6C7.1 15 8 14.1 8 13C8 14.1 8.9 15 10 15H14C15.1 15 16 14.1 16 13V3C16 1.9 15.1 1 14 1ZM6 13H2V10H6V13ZM14 13H10V10H14V13Z" fill="black"/>
</g>
<defs>
<clipPath id="clip0_1279_4010">
<rect width="16" height="16" fill="white"/>
</clipPath>
</defs>
</svg>
